app/img/github.svg

<svg enable-background="new 0 0 30 30" viewBox="0 0 30 30" xmlns="http://www.w3.org/2000/svg"><path d="m15 3c-6.6 0-12 5.4-12 12 0 5.6 3.9 10.3 9.1 11.6-.1-.1-.1-.3-.1-.6v-2c-.5 0-1.3 0-1.5 0-.8 0-1.6-.4-1.9-1-.4-.7-.5-1.8-1.4-2.5-.3-.3-.1-.5.2-.5.6.2 1.1.6 1.6 1.2s.7.8 1.6.8c.4 0 1.1 0 1.7-.1.3-.8.9-1.6 1.6-2-4-.4-5.9-2.4-5.9-5.1 0-1.2.5-2.3 1.3-3.2-.2-1-.6-2.9.1-3.6 1.8 0 2.9 1.2 3.1 1.5 1-.3 2-.5 3-.5s2 .2 2.9.5c.3-.3 1.4-1.5 3.2-1.5.7.7.4 2.7.1 3.6.8.9 1.3 2.1 1.3 3.2 0 2.7-1.9 4.7-5.9 5.1 1.1.6 1.9 2.2 1.9 3.4v2.7.3c4.7-1.6 8-6.1 8-11.3 0-6.6-5.4-12-12-12z" fill="#fff"/></svg>

<?xml version="1.0" encoding="utf-8"?>
<!-- Generator: Adobe Illustrator 26.0.3, SVG Export Plug-In . SVG Version: 6.00 Build 0)  -->
<svg version="1.1" id="Calque_1" xmlns="http://www.w3.org/2000/svg" xmlns:xlink="http://www.w3.org/1999/xlink" x="0px" y="0px"
	 viewBox="0 0 30 30" style="enable-background:new 0 0 30 30;" xml:space="preserve">
<style type="text/css">
	.st0{fill:#FFFFFF;}
</style>
	<path class="st0" d="M15,3C8.4,3,3,8.4,3,15c0,5.6,3.9,10.3,9.1,11.6C12,26.5,12,26.3,12,26v-2c-0.5,0-1.3,0-1.5,0
	c-0.8,0-1.6-0.4-1.9-1c-0.4-0.7-0.5-1.8-1.4-2.5C6.9,20.2,7.1,20,7.4,20C8,20.2,8.5,20.6,9,21.2S9.7,22,10.6,22c0.4,0,1.1,0,1.7-0.1
	c0.3-0.8,0.9-1.6,1.6-2c-4-0.4-5.9-2.4-5.9-5.1c0-1.2,0.5-2.3,1.3-3.2c-0.2-1-0.6-2.9,0.1-3.6c1.8,0,2.9,1.2,3.1,1.5
	c1-0.3,2-0.5,3-0.5s2,0.2,2.9,0.5C18.7,9.2,19.8,8,21.6,8c0.7,0.7,0.4,2.7,0.1,3.6c0.8,0.9,1.3,2.1,1.3,3.2c0,2.7-1.9,4.7-5.9,5.1
	c1.1,0.6,1.9,2.2,1.9,3.4V26c0,0.1,0,0.2,0,0.3c4.7-1.6,8-6.1,8-11.3C27,8.4,21.6,3,15,3z"/>
</svg>
